public/im/ic_im_star.svg

<?xml version="1.0" encoding="UTF-8"?>
<svg width="24px" height="24px" viewBox="0 0 24 24" version="1.1" xmlns="http://www.w3.org/2000/svg" xmlns:xlink="http://www.w3.org/1999/xlink">
    <!-- Generator: Sketch 63.1 (92452) - https://sketch.com -->
    <title>ic_evaluate</title>
    <desc>Created with Sketch.</desc>
    <g id="ic_evaluate" stroke="none" stroke-width="1" fill="none" fill-rule="evenodd">
        <path d="M12,18.206172 L6.66017344,20.8574015 C6.16550455,21.1030051 5.56539511,20.9010978 5.31979149,20.4064289 C5.22903544,20.2236377 5.19637922,20.0174544 5.22620775,19.8155644 L6.09757968,13.9178126 L6.09757968,13.9178126 L1.92601344,9.65861074 C1.53956942,9.26404836 1.54615065,8.63091759 1.94071303,8.24447357 C2.08651269,8.10167383 2.27251328,8.00690179 2.47373959,7.97288297 L8.35210363,6.97910138 L8.35210363,6.97910138 L11.1137605,1.69554036 C11.3695938,1.20608379 11.9737707,1.01669474 12.4632273,1.27252809 C12.6440925,1.36706426 12.7917034,1.51467516 12.8862395,1.69554036 L15.6478964,6.97910138 L15.6478964,6.97910138 L21.5262604,7.97288297 C22.0708181,8.06494454 22.4376387,8.58102645 22.3455772,9.12558417 C22.3115583,9.32681048 22.2167863,9.51281108 22.0739866,9.65861074 L17.9024203,13.9178126 L17.9024203,13.9178126 L18.7737922,19.8155644 C18.8545141,20.3619182 18.4770448,20.8702634 17.9306911,20.9509852 C17.7288011,20.9808138 17.5226178,20.9481575 17.3398266,20.8574015 L12,18.206172 L12,18.206172 Z" id="星形备份-3" fill="#FF7D16"></path>
    </g>
</svg>

<svg xmlns="http://www.w3.org/2000/svg" width="24" height="24" viewBox="0 0 24 24"><title>ic_evaluate</title><path fill="#FF7D16" fill-rule="evenodd" d="M12 18.206l-5.34 2.651a1 1 0 0 1-1.434-1.041l.872-5.898-4.172-4.26a1 1 0 0 1 .548-1.685l5.878-.994 2.762-5.283a1 1 0 0 1 1.772 0l2.762 5.283 5.878.994a1 1 0 0 1 .548 1.686l-4.172 4.259.872 5.898a1 1 0 0 1-1.434 1.041L12 18.207z"/></svg>
